X:1
T:Frere Jacques/Brother John
M:4/4
L:1/4
K:Cmaj
V: RH1 clef=treble
%%MIDI channel 4
%%MIDI program 1 4
%%MIDI gchordoff
V: LH1 clef=bass
%%MIDI channel 3
%%MIDI program 1 3
%%MIDI gchordoff
%
[V: RH1] |: CDEC | CDEC | EFG2 | EFG2 |
[V: LH1] |: E,4  | E,4  | C,4  | C,4  |
[V: RH1] G/2A/2G/2F/2 EC | G/2A/2G/2F/2 EC | Cz C2 | Cz C2 :|
[V: LH1] E,4             | E,4             | zG,z2 | zG,z2 :|
%
